X: 2
T: Teem the Tide
P: Tune for "Aileen's Reel"
C: Ian Findlay 1981
B: Roy Goldring "14 Social Dances for 2000"
R: reel
Z: 2015 John Chambers <jc:trillian.mit.edu>
M: C
L: 1/8
K: A
B |\
"A"c2cA E2EA | "Bm"FBBA "E7"GBBd | "A"c2cA E2EA | "Bm"FGAB "A"cAAB |
"A"c2cA E2EA | "Bm"FBBA "E7"GBBd | "A"c2cA E2EA | "E7"GEdB "A"cAA |]
e |\
"A"agae "D"[f2d2]fa | "A"ecce "E7"dBBe | "A"agae "D"[f2d2]fa | "E7"ecdB "A"cAAe |
"A"agae "D"[f2d2]fa | "A"ecce "E7"dBBc | "A"AceA "D"dfaf | "E7"ecdB "A"cAA |]

%%sep 1 1 500
%%sep 1 1 500

